src/pos-icons/text.svg

<svg height="24" viewBox="0 0 24 24" width="24" xmlns="http://www.w3.org/2000/svg"><path d="m21 6v2h-18v-2zm-18 12h9v-2h-9zm0-5h18v-2h-18z"/></svg>

<?xml version="1.0" encoding="UTF-8"?><!DOCTYPE svg PUBLIC "-//W3C//DTD SVG 1.1//EN" "http://www.w3.org/Graphics/SVG/1.1/DTD/svg11.dtd"><svg xmlns="http://www.w3.org/2000/svg" xmlns:xlink="http://www.w3.org/1999/xlink" version="1.1" id="mdi-text" width="24" height="24" viewBox="0 0 24 24"><path d="M21,6V8H3V6H21M3,18H12V16H3V18M3,13H21V11H3V13Z" /></svg>
